X:110
T:Toss the Feathers
R:reel
H:Other versions: #263 (Ddor), #163 (Edor), #652 (Ddor)
Z:id:hn-reel-110
M:C|
K:Dmix
D2 (3FED AD (3FED|ABcA GE~E2|D2 (3FED ADFA|dfed cAGE|
D2 (3FED AD (3FED|ABcA GE~E2|cABG A2B^c|dfed cAGE:|
|:Ad~d2 Ad~d2|Ad^cd edcd|eaag ~a3g|eaag ed^cd|
efge afge|dfed cAAB|cABG A2B^c|dfed cAGE:|

